X:1
T:Who Shall I Send?
T:Richard Harding
T:Who Shall I Send?
T:Public Domain
T:Public Domain
C:Richard Harding
Z:Public Domain
%%score ( 1 2 ) ( 3 4 )
L:1/8
M:6/8
K:F
V:1 treble 
V:2 treble 
V:3 bass 
V:4 bass 
V:1
 [CF]>[CG][FA] [Fc]2 [Ac] | [Fd][FB][Fd] [Ac]2 [FA] | [Ac]>[Bd][Ac] [FA]2 [CF] | (F>E)[DF] [EG]3 | %4
w: 1.~“Who shall I send,” the|Sav- ior is say- ing,|“Forth to the fields of|wav- * ing grain?”|
w: 2.~Look to the fields, the|har- vest is whit- ening,|Quick- ly the Mas- ter’s|call * o- bey;|
w: 3.~Forth to the world in|wick- ed- ness ly- ing,|Sound- ing the mes- sage|strong * and clear;|
w: 4.~Haste, ere the time of|har- vest has end- ed,|Haste ere the strife and|toil * is o’er;|
 [CF]>[CG][FA] [Fc]2 [Ac] | [Fd]>[Fe][Ff] [Ac]2 [FA] | [Ac]>[Bd][Ac] [FA]2 (F/G/) | %7
w: will to- day, the sum-|mons o- bey- ing, Ga-|ther the sheaves that strew *|
w: ly to toil, the skies|are now bright- ening, Ga-|ther the gold- en sheaves *|
w: with the souls the Gos-|pel de- fy- ing, Wak-|ing the lost to hope *|
w: will the joy of reap-|ers be blend- ed With|the re- deemed for- ev- *|
 [FA]2 [EG] F3 ||"^Refrain" [Fd]4 [DB][Fd] | [Fc]6 | [Ac]>[Bd][Ac] [FA]2 [CF] | (F>E)[DF] [EG]3 | %12
w: plain? * *|||||
w: day. “Who shall|send? Forth to|the|fields of har- vest white?|Who * shall I|
w: cheer. * *|||||
w: more. * *|||||
 [CF]>[CG][FA] [Fc]2 [Ac] | [Fd]>[Fe][Ff] [Ac]2 [FA] | [Ac]>[Bd][Ac] [FA]>F[GB] | [FA]2 [EG] F3 |] %16
w: ||||
w: the Sav- ior is say-|ing; Who in His ser-|vice will take de- light? *||
w: ||||
w: ||||
V:2
 x6 | x6 | x6 | D2 x4 | x6 | x6 | x5 F | x3 F3 || x6 | x6 | x6 | D2 x4 | x6 | x6 | x9/2 F/ x | %15
w: |||Who|||the|||||||||
w: |||Ear-|||to-|I||||send?”||||
w: |||Plead|||and|||||||||
w: |||Soon|||er-|||||||||
 x3 F3 |] %16
w: |
w: |
w: |
w: |
V:3
 [F,A,]>[F,A,][F,C] [A,C]2 [F,C] | [B,D][B,D][B,D] [F,F]2 [F,C] | [F,F]>[F,F][F,F] [F,C]2 [A,C] | %3
w: ~ ~ ~ ~ ~|~ ~ ~ ~ ~|~ ~ ~ ~ ~|
 [G,=B,]2 [G,B,] (C2 _B,) | [F,A,]>[F,A,][F,C] [A,C]2 [F,C] | B,>B,[B,D] [F,F]2 [F,C] | %6
w: ~ ~ ~ *|~ ~ ~ ~ ~|~ ~ ~ ~ ~|
 [F,F]>[F,F][F,F] [F,C]2 [B,D] | C2 [C,B,] [F,A,]3 || [B,,B,][B,,B,][B,,B,] [B,,B,]3 | %9
w: ~ ~ ~ ~ ~|Who shall I|who shall I send,|
 [F,A,][F,A,][F,A,] [F,A,]3 | [F,F]>[F,F][F,F] [F,C]2 [F,A,] | [G,=B,]2 [G,B,] (C2 _B,) | %12
w: |||
 [F,A,]>[F,A,][F,C] [A,C]2 [F,C] | B,>B,[B,D] [F,F]2 [F,C] | [F,F]>[F,F][F,F] [F,C]>[F,A,][B,,D] | %15
w: |||
 [C,C]2 [C,B,] [F,A,]3 |] %16
w: |
V:4
 x6 | x6 | x6 | x3 C,3 | x6 | B,>B, x4 | x6 | C2 x4 || x6 | x6 | x6 | x3 C,3 | x6 | B,>B, x4 | x6 | %15
w: |||~||~ ~||send?||||||||
 x6 |] %16
w: |

